Adwaita++-Light/panel/24/mailspring-tray-full-newitems.svg

<svg height="24" width="24" xmlns="http://www.w3.org/2000/svg">
  <path d="m12 3.9999999a8 8 0 0 0 -8 8.0000001 8 8 0 0 0 8 8 8 8 0 0 0 8-8 8 8 0 0 0 -8-8.0000001zm-5 4h10l-5 5.0000001zm0 1.4140622 3.292969 3.2929689-3.292969 3.292969zm10 0v6.5859379l-3.292969-3.292969zm-6 3.9999999.292969.292969a1.0001 1.0001 0 0 0 1.414062 0l.292969-.292969 2.585938 2.585938h-7.1718755z" fill="#444"/>
  <circle cx="21" cy="19" fill="#4285f4" r="2"/>
</svg>

<svg xmlns="http://www.w3.org/2000/svg" width="24" height="24" version="1.1">
 <defs>
  <style id="current-color-scheme" type="text/css">
   .ColorScheme-Text { color:#444444; } .ColorScheme-Highlight { color:#4285f4; }
  </style>
 </defs>
 <path style="fill:currentColor" class="ColorScheme-Text" d="M 12,3.9999999 A 8,8 0 0 0 4,12 a 8,8 0 0 0 8,8 8,8 0 0 0 8,-8 8,8 0 0 0 -8,-8.0000001 z m -5,4 10,0 L 12,13 7,7.9999999 Z M 7,9.4140621 10.292969,12.707031 7,16 7,9.4140621 Z m 10,0 L 17,16 13.707031,12.707031 17,9.4140621 Z m -6,3.9999999 0.292969,0.292969 a 1.0001,1.0001 0 0 0 1.414062,0 L 13,13.414062 15.585938,16 8.4140625,16 11,13.414062 Z"/>
 <circle style="fill:currentColor" class="ColorScheme-Highlight" cx="21" cy="19" r="2"/>
</svg>
